X:58
T:Journey to the Point
M:3/4
L:1/4
C: Paul Gitlitz 2004
R:Air
B:Hunters and Gatherers
N:Written on a trip down to Point Roberts WA.
K:D
d/e/|"D"f2d |f2g|"C"e<=c-"(C/B)"c-|"Am"=c2A/B/ |! 
"C"=c2A|1=c2e|"D" d3-|d2:|2"C"=c/e/-e2|"D"d3-|d2f|!
|"D"a2g|a2b|"C"g<e-e-|e2e/f/| g2a| g<b-b|"D"a3-|a2 d/e/|!
"D"f2d|f2g|"C" e/=c/-c2-|=c2c/d/|e2=c|e2f|"D"d3-|d2f|! 
"D"a2g|a2b|"C"g<e-e-|e2e/f/|g2a| g<b-b|"D"a3-|a2 d/e/|!
"D"f2d|f2g|"C" e/=c/-c2-|=c2A/B/|=c2A|=c<e-e|"D"d3-|d3|]
